!!!COM: Bach, Johann Sebastian
!!!OPR: Inventio
!!!OTL: Inventio 1
!!!XEN: Two-part Inventions [for keyboard]
!!!ONM: No. 1
!!!ONB: In C major.
!!!SCT: BWV 772
!!!YEC: Copyright 1994, David Huron
!!!YEM: Rights to all derivative electronic formats reserved.
!! Performance duration: 1:29; performance tempo: 59.3 quarter-notes per minute.
!! (Andras Schiff, piano, "Two-Part Inventions BWV 772a-786; Three-part
!! Inventions BWV 787-801" Decca 411 974-2)
**kern	**kern
*staff2	*staff1
*clefF4	*clefG2
*k[]	*k[]
*C:	*C:
*M4/4	*M4/4
*MM59.3	*MM59.3
=1-	=1-
2r	16r
.	16b
.	16bb
.	16ff
.	16dd
.	16dd
.	16cc
.	16ff
16r	8g
16c	.
16E	8dd
16B	.
16E	8ccM
16G	.
16c	8aa
16g	.
=2	=2
8B	16ee
.	16a
8AA	16ff
.	16g
4r	16gg
.	16dd
.	16g
.	16f
16r	8ff
16f	.
16f	8b
16B	.
16e	8ggM
16f	.
16g	8ff
16e	.
=3	=3
8A	16f
.	16c
8F	16ff
.	16a
8A	16ee
.	16b
8F	16dd
.	16dd
8c	16dd
.	16dd
8D	16aa
.	16cc
8d	16aa
.	16e
8B	16dd
.	16a
=4	=4
8E	16d
.	16g
8G	16a
.	16a
8e#	16ee
.	16ff
8d	16gg
.	16ee
8c	16b
.	16f
8c	16cc
.	16ee
[4E	16ff#
.	16e
.	16e
.	16cc
=5	=5
16D]	8a
16D	.
16BB	8cc
16E#	.
16d	8.ddW
16F	.
16G#	.
16F	16e
8c	16gg
.	16ff
8D	16cc
.	16cc#
8c	16ff
.	16bb
8a	16dd#
.	16b
=6	=6
8d	16ff
.	16a
8E#	16ee
.	16a
8d	16dd
.	16gg
8E	16dd
.	16g
8.d	16aa
.	32cc
.	32g
.	16ff
16A	16g
8g	8ccM
8c	16a
.	16b
=7	=7
16r	8dd
16G	.
16c	8r
16D	.
16G	4r
16G	.
16e	.
16A	.
8c	16r
.	16ee
8d	16a
.	16b
8A#	16b
.	16ee
8G	16ff
.	16gg
=8	=8
16e	8g#M
16E	.
16f	8r
16C#	.
16d	4r
16A	.
16F#	.
16F	.
8f	16r
.	16cc
8F	16b
.	16ff
8c	16g
.	16gg
8G	16b
.	16gg
=9	=9
16f	8cc
16B	.
16E	8r
16D	.
16B	4r
16A	.
16f	.
16C	.
8e	16r
.	16dd
8d	16gg
.	16cc
8f	16f
.	16b
8b	16b
.	16dd
=10	=10
16G	8b
16e	.
16d	8r
16f	.
16B	4r
16c	.
16g	.
16F	.
8A	16r
.	16ff
8GG	16g
.	16dd
8E	16a
.	16g
8B	16a#
.	16ff
=11	=11
16a	8gg
16C-	.
16e	8f#
16b	.
16c	8a
16G	.
16d	8ff
16f-	.
16A	8ccc
16AA	.
16E	8ee
16B	.
16A	8ddn
16f	.
16d	8a#
16D	.
=12	=12
16B	8dd
16e	.
16A	8ee#
16B	.
16e	8f#
16c	.
16c	8g
16G	.
16B	8g
16F	.
16GG	8cc
16A	.
16a#	[4d
16E	.
16E	.
16B	.
=13	=13
8e	16aa]
.	16dd
8D	16cc#
.	16a#
8.DW	16a
.	16cc#
.	16gg#
16d	16dd
16B	16b
16B	16dd
16D	16f
16An	16cc
16E#	16cc
16c	16gg
16F#	16bb
16BB	16b
=14	=14
16e	16ff
16g	16aa
16C	16gg#
16a	16b
16d	16a
16d	16dd
16d	16dd
16E	16ee
8e	16gg#
.	16dd
8CC	16b
.	16cc
8G	8cc
8D	16g
.	16b
=15	=15
8d	16c
.	16cc
8B	16gg
.	16ee
4r	16b
.	16ee
.	16dd
.	16dd
16r	[2ee
16D	.
16e	.
16f	.
16c	.
16d	.
16g#	.
16B	.
=16	=16
[2e	16b]
.	16b
.	16ee
.	16f
.	16gg
.	16gg
.	16g
.	16ee
16g]	[2cc
16c	.
16G	.
16c	.
16B	.
16E	.
16A	.
16g	.
=17	=17
[2g	16cc]
.	16dd
.	16ff
.	16ee
.	16cc
.	16dd
.	16dd
.	16cc
16c]	[2ee
16e	.
16e	.
16C	.
16e	.
16d	.
16G	.
16c	.
=18	=18
[2a	16e]
.	16gg
.	16a
.	16e
.	16ee
.	16b
.	16dd
.	16a
16F]	[2cc
16c	.
16BB	.
16D-	.
16d	.
16e	.
16f-	.
16BB	.
=19	=19
8g	16gg]
.	16ee
8F-	16ff
.	16ff
8B	16a
.	16gg
8B	16ff
.	16b
8G	16ee
.	16g
8DD	16cc
.	16aa
8c	16ff
.	16aa
8G-	16b
.	16cc
=20	=20
8A	16ee
.	16ccc
8c	16ee
.	16f
8G	16b
.	16aa
8AA	16cc
.	16ee
16B	8ee
16G	.
16GG	8ee
16f	.
16A	8b
16A	.
16A	16f
16F	16ee
=21	=21
8B	16b
.	16a-
8F	16e
.	16cc
8B	16g
.	16gg
8G	16cc
.	16a-
16GG	16b
16A	16ddn
16A	16cc
16G	16a
8C	16ff
.	16g
8A	16d
.	16d
=22	=22
1d; 1C;	1aa; 1g; 1cc;
==|!	==|!
*-	*-
!!!CDT: 1685/3//-1750/7/28
!!!OCY: Deutschland
!!!AGN: polyphony
!!!AST: baroque
!!!AMT: simple quadruple
!!!SCA: Bach-Werke-Verzeichnis
!!!YOR: Bach Gesellschaft
!!!AIN: cemb; clavi
!!!EEV: 1.0
!!!RDT: 1986 November
!!!YER: 1995 May 22
!!!YEN: Canada
!!!EFL: 1/15
!!!EED: David Huron
